src/pos-icons/stethoscope.svg

<svg height="24" viewBox="0 0 24 24" width="24" xmlns="http://www.w3.org/2000/svg"><path d="m19 8c.56 0 1 .43 1 1a1 1 0 0 1 -1 1c-.57 0-1-.45-1-1 0-.57.43-1 1-1m-17-6v9c0 2.96 2.19 5.5 5.14 5.91.62 3.01 3.28 5.09 6.36 5.09a6.5 6.5 0 0 0 6.5-6.5v-3.69c1.16-.42 2-1.52 2-2.81a3 3 0 0 0 -3-3 3 3 0 0 0 -3 3c0 1.29.84 2.4 2 2.81v3.6c0 2.5-2 4.5-4.5 4.5-2 0-3.68-1.21-4.28-3.01 2.78-.6 4.78-3.1 4.78-5.9v-9h-4v3h2v6a4 4 0 0 1 -4 4 4 4 0 0 1 -4-4v-6h2v-3z"/></svg>

<?xml version="1.0" encoding="UTF-8"?><!DOCTYPE svg PUBLIC "-//W3C//DTD SVG 1.1//EN" "http://www.w3.org/Graphics/SVG/1.1/DTD/svg11.dtd"><svg xmlns="http://www.w3.org/2000/svg" xmlns:xlink="http://www.w3.org/1999/xlink" version="1.1" id="mdi-stethoscope" width="24" height="24" viewBox="0 0 24 24"><path d="M19,8C19.56,8 20,8.43 20,9A1,1 0 0,1 19,10C18.43,10 18,9.55 18,9C18,8.43 18.43,8 19,8M2,2V11C2,13.96 4.19,16.5 7.14,16.91C7.76,19.92 10.42,22 13.5,22A6.5,6.5 0 0,0 20,15.5V11.81C21.16,11.39 22,10.29 22,9A3,3 0 0,0 19,6A3,3 0 0,0 16,9C16,10.29 16.84,11.4 18,11.81V15.41C18,17.91 16,19.91 13.5,19.91C11.5,19.91 9.82,18.7 9.22,16.9C12,16.3 14,13.8 14,11V2H10V5H12V11A4,4 0 0,1 8,15A4,4 0 0,1 4,11V5H6V2H2Z" /></svg>
